!!!COM: Music21
!!!OTL: Rumba dos Portelas de Moares
!!!OMV: pezas_rumbas_rumba-dos-portelas-de-moares_rumba-dos-portelas-de-moares-partitura.musicxml
**kern
*part1
*staff1
*I"Gaita
*I'Bag
*clefG^2
*k[]
*M2/4
*MM113
=1
!LO:TX:a:t=[quarter]=113
4r
8eeL
8ffJ
=||
8ggL
16eeL
16ffJJ
8ggL
16aaL
16ffJJ
=
8ggL
16eeL
16ffJJ
8ggL
16aaL
16ffJJ
=
8ggL
16eeL
16ffJJ
8ggL
16bbL
16aaJJ
=
[2ff
=
4ff]
8ddL
8eeJ
=
8ffL
16ddL
16eeJJ
8ffL
16ggL
16eeJJ
!!linebreak:original
=
8ffL
16ddL
16eeJJ
8ffL
16ggL
16eeJJ
!!linebreak:original
=
8ffL
16ddL
16eeJJ
8ffL
16aaL
16aaJJ
=
[2gg
=
4gg]
8eeL
8ffJ
=
8ggL
16eeL
16ffJJ
8ggL
16aaL
16ffJJ
=
8ggL
16eeL
16ffJJ
8ggL
16aaL
16ffJJ
=
8ggL
16eeL
16ffJJ
8ggL
16bb-XL
16bb-JJ
=
[2aa
=
4aa]
8ffL
8ggJ
!!linebreak:original
=
8aaL
16ffL
16ggJJ
8aaL
16bbL
16aaJJ
=
8ggL
16eeL
16ffJJ
8ggL
16aaL
16ggJJ
=
8ffL
16ddL
16eeJJ
8ffL
16aaL
16aaJJ
=
[2gg
=
4gg]
8ffL
8ggJ
=
8aaL
16ffL
16ggJJ
8aaL
16bbL
16aaJJ
=
8ggL
16eeL
16ffJJ
8ggL
16aaL
16ggJJ
!!linebreak:original
=
8ffL
16ddL
16eeJJ
8ffL
16ggL
16ggJJ
=
[2ee
=
4ee]
8ccL
8ccJ
=||
8.aaL
16ggJk
8aaL
8bbJ
=
8.ggL
16ffJk
8ggL
8aaJ
=
8.ffL
16eeJk
8ffL
8aaJ
=
[2gg
=
4gg]
8eeL
8eeJ
=
8.aaL
16ggJk
8aaL
8bbJ
!!pagebreak:original
=
8.ggL
16ffJk
8ggL
8aaJ
=
8.ffL
16eeJk
8ddL
8ffJ
=
[2ee
=
4ee]
8ccL
8ccJ
=||
8.aaL
16ggJk
8aaL
8bbJ
=
8.ggL
16ffJk
8ggL
8aaJ
=
8.ffL
16eeJk
8ffL
8aaJ
=
[2gg
=
4gg]
8eeL
8eeJ
!!linebreak:original
=
8.aaL
16ggJk
8aaL
8bbJ
!!linebreak:original
=
8.ggL
16ffJk
8ggL
8aaJ
=
8.ffL
16eeJk
8ddL
8ffJ
=||
[2ee
=
4ee]
8eeL
8ffJ
=||
[2ee
=
4ee]
4r
==
*-
!!!system-decoration: s1,s2
